svgs/duotone/anchor-lock.svg

<svg xmlns="http://www.w3.org/2000/svg" viewBox="0 0 640 512"><!--! Font Awesome Pro 6.4.2 by @fontawesome - https://fontawesome.com License - https://fontawesome.com/license (Commercial License) Copyright 2023 Fonticons, Inc. --><path class="fa-primary" style="fill:var(--fa-primary-color,inherit);opacity:var(--fa-primary-opacity,1);" d="M496 272v48h64V272c0-17.7-14.3-32-32-32s-32 14.3-32 32zm-48 48V272c0-44.2 35.8-80 80-80s80 35.8 80 80v48c17.7 0 32 14.3 32 32V480c0 17.7-14.3 32-32 32H448c-17.7 0-32-14.3-32-32V352c0-17.7 14.3-32 32-32z"/><path class="fa-secondary" style="fill:var(--fa-secondary-color,inherit);opacity:var(--fa-secondary-opacity,.4);" d="M288 64a32 32 0 1 0 0 64 32 32 0 1 0 0-64zm96 32c0 33.4-17 62.8-42.9 80H352c17.7 0 32 14.3 32 32s-14.3 32-32 32H320V448h48c5.5 0 10.8-.5 16-1.3V480c0 11 2.7 21.3 7.6 30.3c-7.7 1.1-15.6 1.7-23.6 1.7H288 208c-88.4 0-160-71.6-160-160v-6.1l-7 7c-9.4 9.4-24.6 9.4-33.9 0s-9.4-24.6 0-33.9l56-56c9.4-9.4 24.6-9.4 33.9 0l56 56c9.4 9.4 9.4 24.6 0 33.9s-24.6 9.4-33.9 0l-7-7V352c0 53 43 96 96 96h48V240H224c-17.7 0-32-14.3-32-32s14.3-32 32-32h10.9C209 158.8 192 129.4 192 96c0-53 43-96 96-96s96 43 96 96z"/></svg>

<svg xmlns="http://www.w3.org/2000/svg" viewBox="0 0 640 512"><!--! Font Awesome Pro 6.1.1 by @fontawesome - https://fontawesome.com License - https://fontawesome.com/license (Commercial License) Copyright 2022 Fonticons, Inc. --><defs><style>.fa-secondary{opacity:.4}</style></defs><path class="fa-primary" d="M448 320V272C448 227.8 483.8 192 528 192C572.2 192 608 227.8 608 272V320C625.7 320 640 334.3 640 352V480C640 497.7 625.7 512 608 512H448C430.3 512 416 497.7 416 480V352C416 334.3 430.3 320 448 320zM496 320H560V272C560 254.3 545.7 240 528 240C510.3 240 496 254.3 496 272V320z"/><path class="fa-secondary" d="M384 96C384 129.4 366.1 158.8 341.1 176H352C369.7 176 384 190.3 384 208C384 225.7 369.7 240 352 240H319.1V448H368C373.4 448 378.8 447.5 384 446.7V480C384 490.1 386.7 501.3 391.6 510.3C383.9 511.4 376 512 368 512H208C119.6 512 48 440.4 48 352V345.9L40.97 352.1C31.6 362.3 16.4 362.3 7.029 352.1C-2.343 343.6-2.343 328.4 7.029 319L63.03 263C72.4 253.7 87.6 253.7 96.97 263L152.1 319C162.3 328.4 162.3 343.6 152.1 352.1C143.6 362.3 128.4 362.3 119 352.1L112 345.9V352C112 405 154.1 448 208 448H256V240H224C206.3 240 192 225.7 192 208C192 190.3 206.3 176 224 176H234.9C209 158.8 192 129.4 192 96C192 42.98 234.1 0 288 0C341 0 384 42.98 384 96H384zM287.1 64C270.3 64 255.1 78.33 255.1 96C255.1 113.7 270.3 128 287.1 128C305.7 128 319.1 113.7 319.1 96C319.1 78.33 305.7 64 287.1 64z"/></svg>
